X:1
T:Rissolvetevi pensieri
T:Barbara Strozzi
T:Source : Ariette a voce sola---Opera sesta---Venetia---F.Magni---1657. Editor: André Vierendeels. (06/09/16). 
T:Notes : Original clefs : C1, F4 Original note values have been halved in 3-beat measures Dotted brackets inducate black notes
T:Rissolvetevi pensieri
T:©
T:©
T:©
T:©
T:©
T:©
C:Barbara Strozzi
Z:©
%%score 1 2
L:1/8
Q:1/4=90
M:4/4
K:F
V:1 treble nm="Soprano" snm="S"
V:2 bass nm="MusicXML Part"
V:1
 z2 DF EFGA | FDFB GABc | AFcd BAAA | dF GA A4 | z2 cc dc cB | B3 A A2 fc | dBGc AFDG | E2 F6- | %8
w: Ri- sol- ve- te- vi pen-|sie- ri, ri- sol- ve- te- vi pen-|sie- ri di la- sciar _ mi- in|li- * ber- * ta:|è trop' as- * pra _|cru- del- ta rad- dop-|piar _ _ _ _ _ _ _|no- *|
w: Lu- sin- ghie- re mie spe-|ran- ze, lu- sin- gie- re mie spe-|ran- ze, il ten- tar- * mi è|va- * ni- * tà:|il mio cor _ sof- *|frir non sa vo- stre|per- * * * * * * *|fi- de|
w: Se trà l'a- gi d'un bel|col- le, se tra l'a- gi d'un bel|col- le, vol- go mai _ ra- min-|go _ il _ pie,|a far pro- * va _|di mia fè rio fan-|tas- * * * * * * *|ma ogn'|
 F2 GA B4 | A2 Ac =Bcde | ^cA=cd BAAA | dF GA A2 cc | dc cB B3 A | A2 fc dBGc | AFDG E2 F2- | %15
w: * di- si fie-|ri, ri- sol- ve- te- vi pen-|sie- ri di la- sciar- * mi in|li- * ber- * tà: è trop'|as- * pra _ cru- del-|ta rad- dop- piar _ _ _|_ _ _ _ no- *|
w: _ bal- * dan-|ze. Lu- sin- gie- re mie spe-|ran- ze, il ten- tar- * mi è|va- * ni- * ta: il mio|cor _ sof- * frir non|sa vo- stre per- * * *|* * * * fi- de|
w: _ hor s'es- tol-|le. Se trà l'a- gi d'un bel|col- le, vol- go mai _ ra- min-|go _ il _ piè, a far|pro- * va _ di mia|fè rio fan- tas- * * *|* * * * ma ogn'|
 F6 GA | B4 A2 Ac | =Bcde ^cAfe | gfef f3 e | d8 ::[M:6/4] d2 A2 B2 c4 c2 | B4 B2 A2 c2 c2 | %22
w: * di si|fie- ri. Ri- sol-|ve- te- vi pen- sie- ri, ri- sol-|ve- te vi pensie- * *|ri.|E se sti- ma- te|ch'al- tr'a- mor, ch'al- tr'a-|
w: _ bal- *|dan- ze. Lu- sin-|gier- re mie dpe- ran- ze'il ten- tar-|mi è va- * ni- *|ta.|Gia sen- za re- pli-|car nu- o- vo do-|
w: _ hor s'es-|tol- le. Se tra|l'a- gi d'un bel col- 1e vol- go|ma- i ra- min- go il|pie.|Se si gra- ve pen-|sier l'a- ni- ma in-|
 d2 c3 B A4 B2 | c2 B3 A G2 F2 G2 | A2 G4 F4 f2 | e6 d6 | c6 B6 | A2 A2 =B2 c2 A2 z2 | %28
w: |* * * mor i- o|bra- * mi, strin-|ge- te-|mi'al suo|sen, ca- ri, ca- ri,|
w: lo- * * * *||* * re, del|pri- mo|col- po|ho'an- cor pia- ga- to'il|
w: gom- * * * *||* * bra ahi,|ch'il suo'a-|mor non|è che so- * gno,|
 z2 =B2 c2 d2 fe de | c2 =B4 A4 c2 | B6 A6 | G6 F6 | E2 F2 G2 A2 F2 z2 | z2 A2 B2 c2 dc FG | %34
w: ca- ri, ca- ri _ le- *|ga- * mi, strin-|ge- te-|mi'al suo|sen, ca- ri, ca- ri,|ca- ri, ca- ri _ le- *|
w: co- r,e co- re, _ pian- *|ga- * to, del|pri- mo|col- po|ho'an- cor pia- ga- to'il|co- re, co- re, _ pian- *|
w: so- gno, so- gno _ è _|che so- gno, ahi,|ch'il suo'a-|mor non|è che so- * gno,|so- gno, so- gno _ è _|
 A2 G4 F4 f2 | e6 d6 | ^c6 d6 | ^c2 d2 e2 f2 d2 z2 | z2 e2 f2 g2 f2 e2 | f2 e4 d6- | %40
w: ga- * mi, strin-|ge- te|mi'al suo|sen, ca- ri, ca- ri,|ca- ri, ca- ri la-|ga- * mi,|
w: ga- * to, del|pri- mo|col- po|ho'an- cor pia- ga- to'il|co- re, co- re, pian-|ga- * te,|
w: che so- gno, ahi|ch'il suo'a-|mor non|è che so- * gno,|so- gno, so- gno è|che so- gno,|
 d2 e2 f2 g2 f2 e2 | f2 e4 d6 :| %42
w: _ ca- ri, ca- ri le-|ga- * mi|
w: _ co- re, co- re pian-|ga- * te.|
w: _ so- gno, so- gno &|om- * bra.|
V:2
"^BC" D,6 ^C,2 | D,4 E,4 | F,4 G,2 A,2 |"^BC" B,4 A,2 A,G, | F,4 B,,2 C,2 | D,2 E,2 F,2 A,2 | %6
 B,2 C2 F,2 B,2 |"^BC" C2 DC DCB,A, | B,A,G,F, CB,CC, | F,4 G,4 | A,2 F,2 G,2 A,2 | %11
"^BC" B,4 A,2 F,2 | B,,2 C,2 D,2 E,2 | F,2 A,2 B,2 C2 |"^BC" F,2 B,2 C2 DC | DCB,A, B,A,G,F, | %16
 CB,CC, F,4 | G,4 A,2 DC |"^BC" B,A,G,D, A,4 | D,8 ::[M:6/4] D,6 A,2 E,2 F,2 | G,2 D,2 E,2 F,6 | %22
"^BC" B,2 C4 D2 C2 B,2 | A,2 B,4 C2 A,2 B,2 | C6 F,6 | C2 B,2 A,2 B,2 A,2 G,2 | %26
 A,2 G,2 F,2 G,2 F,2 E,2 |"^BC" F,6 F,2 F,2 E,2 | D,2 D,2 E,2 F,2 D,4 | E,6 A,,4 F,2 | %30
 G,2 F,2 E,2 F,2 E,2 D,2 | E,2 D,2 C,2 D,2 C,2 D,2 |"^BC" A,,2 G,,4 F,,2 F,2 E,2 | %33
 D,2 C,2 B,,2 A,,2 B,,4 | C,6 F,6 | C2 B,2 A,2 B,2 A,2 G,2 | A,2 G,2 F,2 B,2 A,2 B,2 | %37
"^BC" A,2 G,4 F,2 F,2 G,2 | A,6 B,2 A,2 G,2 | A,6 D4 C2 | B,2 A,4 B,2 A,2 G,2 | A,6 D,6 :| %42

